!!!!SEGMENT: pl-kk--kk-i-2--005-003_anonim--missa-ii-brevis-ad-imitationem-missae-sine-nomine-credo.krn
!!!cenid: 16xx:1600
!!!COM: Anonim
!!!COM-rismID: pe30004985
!!!CDT:
!!!CNT:
!!!OPR: Missa II brevis ad imitationem missae Sine nomine
!!!OTL: Credo
!!!OMV: 003
!!!PDT:
!!!AGN: Sacred; Mass
!!!SMS-siglum: PL-Kk
!!!SMS-shelfmark: Kk.I.2
!!!SMS-shelfwork: 005-003 M
!!!NIFC-rismSourceID: 300258021
!!!NIFC-islandoraID: pl-kk:750
!!!URL-pdf-islandora: https://repozytorium.nifc.pl/islandora/object/pl-kk%3A750/datastream/PDF/view
!!!URL-scan: https://polish.musicsources.pl/pl/lokalizacje/galeria/rekopisy/5828 @EN{Scan on Polish Music Sources Website} @PL{Skany w portalu Dziedzictwo Muzyki Polskiej w otwartym dostępie}
!!!ONB-nifc: Części mszy: Kyrie, Gloria, Credo, Sanctus, Agnus Dei; skany: C: 0012-0013; A: 0112-0113; T: 0215-0216; B: 0315-0317;
!!!AIN: 1 alto 1 bass 1 soprn 1 tenor
!!!key:
**kern	**text	**kern	**text	**kern	**text	**kern	**text
*part4	*part4	*part3	*part3	*part2	*part2	*part1	*part1
*staff4	*staff4	*staff3	*staff3	*staff2	*staff2	*staff1	*staff1
*I"BASVS	*	*I"TENOR	*	*I"ALTVS	*	*I"DISCANTVS	*
*I'B	*	*I'T	*	*I'A	*	*I'S	*
*Ibass	*	*Itenor	*	*Ialto	*	*Isoprn	*
*ICvox	*	*ICvox	*	*ICvox	*	*ICvox	*
*clefF4	*	*clefC4	*	*clefC4	*	*clefC1	*
*k[]	*	*k[]	*	*k[]	*	*k[]	*
*a:	*	*a:	*	*a:	*	*a:	*
*M2/1	*	*M2/1	*	*M2/1	*	*M2/1	*
*met(C|)	*	*met(C|)	*	*met(C|)	*	*met(C|)	*
=1-	=1-	=1-	=1-	=1-	=1-	=1-	=1-
1r	.	0r	.	2.E/	Pa-	00r	.
.	.	.	.	4E/	-trem	.	.
2.E\	Pa-	.	.	2E/	om-	.	.
!	!	!	!	!LO:TX:t=P:problem=kreska pseudotaktowa	!	!	!
.	.	.	.	2E/	-ni-	.	.
!LO:TX:t=P:problem=kreska pseudotaktowa	!	!	!	!	!	!	!
4E\	-tre(m)	.	.	.	.	.	.
=2-	=2-	=2-	=2-	=2-	=2-	=2-	=2-
2E\	om-	2.E/	Pa-	2.G/	-po-	.	.
2E\	-ni-	.	.	.	.	.	.
!	!	!LO:TX:t=P:problem=kreska pseudotaktowa	!	!	!	!	!
.	.	4E/	-trem	4A/	.	.	.
2.G\	-po-	2E/	om-	2B/	.	.	.
.	.	2E/	-ni-	1c\	.	.	.
!LO:TX:t=P:problem=kreska pseudotaktowa	!	!	!	!	!	!	!
4F\	.	.	.	.	.	.	.
=3-	=3-	=3-	=3-	=3-	=3-	=3-	=3-
!	!	!	!	!	!	!LO:TX:t=P:problem=kreska pseudotaktowa	!
4E/	.	2.G/	-po-	.	.	00r	.
4D/	.	.	.	.	.	.	.
2.E/	.	.	.	4B/	-ten-	.	.
!	!	!LO:TX:t=P:problem=kreska pseudotaktowa	!	!LO:TX:t=P:problem=kreska pseudotaktowa	!	!	!
.	.	4A/	.	4A/	.	.	.
.	.	2B/	.	1G	-tem	.	.
4D/	.	.	.	.	.	.	.
4C/	.	2.c/	.	.	.	.	.
!LO:TX:t=P:problem=kreska pseudotaktowa	!	!	!	!	!	!	!
4BB/	.	.	.	.	.	.	.
=4-	=4-	=4-	=4-	=4-	=4-	=4-	=4-
!	!	!	!	!LO:TX:t=P:problem=kreska pseudotaktowa	!	!	!
2AA/	.	.	.	0r	.	.	.
.	.	4B/	.	.	.	.	.
2C/	.	1A	.	.	.	.	.
1BB	-ten-	.	.	.	.	.	.
!	!	!LO:TX:t=P:problem=kreska pseudotaktowa	!	!	!	!	!
.	.	2G/	-ten-	.	.	.	.
=5-	=5-	=5-	=5-	=5-	=5-	=5-	=5-
!LO:TX:t=P:problem=kreska pseudotaktowa	!	!	!	!	!	!	!
1AA	-tem	1A	-tem	1c	fa-	1e	Fa-
2r	.	00r	.	2c\	-cto-	2e/	-cto-
!	!	!	!	!LO:TX:t=P:problem=kreska pseudotaktowa	!	!LO:TX:t=P:problem=kreska pseudotaktowa	!
2E\	fac-	.	.	2B\	-rem	2e/	-rem
=6-	=6-	=6-	=6-	=6-	=6-	=6-	=6-
2.E\	-to-	.	.	1e	cę-	2.g/	ce-
!LO:TX:t=P:problem=kreska pseudotaktowa	!	!	!	!	!	!	!
4F\	.	.	.	.	.	4a/	.
2G\	-re(m)	.	.	2d\	-li	4b\	.
.	.	.	.	.	.	4g/	.
!	!	!	!	!LO:TX:t=P:problem=kreska pseudotaktowa	!	!LO:TX:t=P:problem=kreska pseudotaktowa	!
2A\	cę-	.	.	2c\	et	2cc\	.
=7-	=7-	=7-	=7-	=7-	=7-	=7-	=7-
2D/	-li	.	.	4d\	ter-	2b\	-li
.	.	.	.	4c\	.	.	.
2F\	et	.	.	4B/	.	1a	et
.	.	.	.	4A/	.	.	.
*custos:AA	*	*	*	*custos:A	*	*	*
!LO:TX:t=P:problem=kreska pseudotaktowa	!	!	!	!	!	!	!
1E	ter-	2r	.	1B	.	.	.
!	!	!LO:TX:t=P:problem=kreska pseudotaktowa	!	!	!	!	!
.	.	2E/	vi-	.	.	2g/	ter-
!LO:LB:g=original	!	!	!	!LO:LB:g=original	!	!	!
=8-	=8-	=8-	=8-	=8-	=8-	=8-	=8-
!	!	!	!	!LO:TX:t=P:problem=kreska pseudotaktowa	!	!LO:TX:t=P:problem=kreska pseudotaktowa	!
2AA/	-rę	2.E/	-ſi-	1A	-rę	1a	-rre
2AA/	vi-	.	.	.	.	.	.
.	.	4F/	-bi-	.	.	.	.
2E\	-ſi-	2G/	-li-	0r	.	0r	.
!LO:TX:t=P:problem=kreska pseudotaktowa	!	!LO:TX:t=P:problem=kreska pseudotaktowa	!	!	!	!	!
2F\	-bi-	2A/	-um	.	.	.	.
=9-	=9-	=9-	=9-	=9-	=9-	=9-	=9-
2E\	-li-	2G/	om-	.	.	.	.
2C/	-u(m)	2c\	-ni-	.	.	.	.
1D	om-	2B\	-um	1.d	et	2r	.
!	!	!	!	!	!	!LO:TX:t=P:problem=kreska pseudotaktowa	!
.	.	1A\	et	.	.	2a/	et
=10-	=10-	=10-	=10-	=10-	=10-	=10-	=10-
!LO:TX:t=P:problem=kreska pseudotaktowa	!	!	!	!	!	!	!
1BB	-ni-	.	.	.	.	2dd\	in-
*	*	*custos:A	*	*	*	*	*
!	!	!LO:TX:t=P:problem=kreska pseudotaktowa	!	!	!	!	!
!	!	!	!	!LO:TX:t=P:problem=kreska pseudotaktowa	!	!	!
.	.	2G/	in-	2d\	in-	2dd\	-ui-
!	!	!LO:LB:g=original	!	!	!	!	!
2AA,</	-u(m)	2A/	-vi-	2f\	-ui-	2.cc\	-ſi-
2A\	et	2A/	-ſi-	2.e\	-ſi-	.	.
!	!	!	!	!	!	!LO:TX:t=P:problem=kreska pseudotaktowa	!
.	.	.	.	.	.	4b\	.
=11-	=11-	=11-	=11-	=11-	=11-	=11-	=11-
2A\	in-	2c\	-bi-	.	.	4a/	.
.	.	.	.	4f\	.	4g/	.
!LO:TX:t=P:problem=kreska pseudotaktowa	!	!LO:TX:t=P:problem=kreska pseudotaktowa	!	!LO:TX:t=P:problem=kreska pseudotaktowa	!	!	!
2G\	-ui-	2B\	.	2g\	.	2.b/	-bi-
2A\	-ſi-	2c\	.	2e\	-bi-	.	.
.	.	.	.	.	.	4a/	-li-
2D/	-bi-	2d\	-li-	2f\	-li-	1a/	-um
=12-	=12-	=12-	=12-	=12-	=12-	=12-	=12-
!LO:TX:t=P:problem=kreska pseudotaktowa	!	!LO:TX:t=P:problem=kreska pseudotaktowa	!	!LO:TX:t=P:problem=kreska pseudotaktowa	!	!	!
1E	-li-	1B	-um	1e	-u(m)	.	.
*	*	*	*	*	*	*custos:a	*
!	!	!	!	!	!	!LO:TX:t=P:problem=kreska pseudotaktowa	!
.	.	.	.	.	.	2g/	Et
!	!	!	!	!	!	!LO:LB:g=original	!
2AA,</	-u(m)	2A/	Et	2r	.	2a/	in
1AA/	Et	1A\	in	1e\	Et	1cc\	v-
=13-	=13-	=13-	=13-	=13-	=13-	=13-	=13-
.	.	.	.	.	.	.	.
!LO:TX:t=P:problem=kreska pseudotaktowa	!	!LO:TX:t=P:problem=kreska pseudotaktowa	!	!LO:TX:t=P:problem=kreska pseudotaktowa	!	!LO:TX:t=P:problem=kreska pseudotaktowa	!
2AA/	in	2A/	v-	2e\	in	2cc\	-num
2E\	v-	2G/	-num	2.e\	v-	2b\	do-
2E\	-num	2G/	do-	.	.	2g/	-mi-
.	.	.	.	4e\	-nu(m)	.	.
=14-	=14-	=14-	=14-	=14-	=14-	=14-	=14-
4AA/	do-	2c\	-mi-	2e\	do-	2a/	.
4BB/	.	.	.	.	.	.	.
!	!	!LO:TX:t=P:problem=kreska pseudotaktowa	!	!LO:TX:t=P:problem=kreska pseudotaktowa	!	!	!
4C/	.	2c\	-num	2e\	-mi-	2a/	-num
!LO:TX:t=P:problem=kreska pseudotaktowa	!	!	!	!	!	!	!
4D/	-mi-	.	.	.	.	.	.
!	!	!	!	!	!	!LO:TX:t=P:problem=kreska pseudotaktowa	!
2E\	-nu(m)	1B	Je-	2e\	-nu(m)	1g	Je-
2E\	Je-	.	.	2e\	Je-	.	.
=15-	=15-	=15-	=15-	=15-	=15-	=15-	=15-
!LO:TX:t=P:problem=kreska pseudotaktowa	!	!LO:TX:t=P:problem=kreska pseudotaktowa	!	!	!	!	!
1F	-ſu(m)	1A	-ſum	2c\	-ſu(m)	1a	-ſum
.	.	.	.	2d\	.	.	.
*lig	*	*	*	*	*	*	*
!	!	!	!	!LO:TX:t=P:problem=kreska pseudotaktowa	!	!	!
1C	Chri-	2c\	Chri-	1e	Chr(i-	2g/	Chri-
!	!	!	!	!	!	!LO:TX:t=P:problem=kreska pseudotaktowa	!
.	.	2G/	.	.	.	2cc\	.
=16-	=16-	=16-	=16-	=16-	=16-	=16-	=16-
*custos:E	*	*	*	*	*	*	*
1D	.	2.d\	.	1f	-stu)m	2b\	.
.	.	.	.	.	.	1a	.
!	!	!LO:TX:t=P:problem=kreska pseudotaktowa	!	!	!	!	!
.	.	4c\	.	.	.	.	.
*Xlig	*	*	*	*	*	*	*
!LO:TX:t=P:problem=kreska pseudotaktowa	!	!	!	!	!	!	!
0E	-ſtu(m)	4B\	.	2e\	fi-	.	.
.	.	4A\	.	.	.	.	.
.	.	1c\	.	2.e\	-li-	4g/	.
.	.	.	.	.	.	4f/	.
!LO:LB:g=original	!	!	!	!	!	!	!
=17-	=17-	=17-	=17-	=17-	=17-	=17-	=17-
!	!	!	!	!	!	!LO:TX:t=P:problem=kreska pseudotaktowa	!
.	.	.	.	.	.	1g	-ſtum,
.	.	.	.	4e\	-u(m)	.	.
!	!	!	!	!LO:TX:t=P:problem=kreska pseudotaktowa	!	!	!
.	.	4B/	.	2e\	de-	.	.
.	.	4A/	.	.	.	.	.
*	*	*	*	*custos:e	*	*	*
!	!	!LO:TX:t=P:problem=kreska pseudotaktowa	!	!	!	!	!
2r	.	1B	-ſtum	2d	-i	2r	.
!	!	!	!	!LO:PB:g=original	!	!	!
2.E\	fi-	.	.	2.e\	v-	2.g/	fi-
=18-	=18-	=18-	=18-	=18-	=18-	=18-	=18-
.	.	2r	.	.	.	.	.
4E\	-li-	.	.	4c\	-ni-	4g/	-li-
!LO:TX:t=P:problem=kreska pseudotaktowa	!	!	!	!	!	!LO:TX:t=P:problem=kreska pseudotaktowa	!
2E\	-u(m)	1c	fi-	1e	-ge-	2g/	-um
1F	de-	.	.	.	.	1a	de-
*	*	*custos:c	*	*	*	*	*
!	!	!LO:TX:t=P:problem=kreska pseudotaktowa	!	!	!	!	!
!	!	!	!	!LO:TX:t=P:problem=kreska pseudotaktowa	!	!	!
.	.	2A/	-li-	2d\	.	.	.
!	!	!LO:PB:g=original	!	!	!	!	!
=19-	=19-	=19-	=19-	=19-	=19-	=19-	=19-
1.E	.	2c/	-um	2.e\	.	2g/	-i
!	!	!LO:TX:t=P:problem=kreska pseudotaktowa	!	!	!	!	!
.	.	2B/	De-	.	.	4e/	v-
!	!	!	!	!	!	!LO:TX:t=P:problem=kreska pseudotaktowa	!
.	.	.	.	4d\	.	4f/	.
.	.	2G/	-i	4e\	.	4g/	.
.	.	.	.	4c/	.	4a/	.
!LO:TX:t=P:problem=kreska pseudotaktowa	!	!	!	!LO:TX:t=P:problem=kreska pseudotaktowa	!	!	!
2D/	-i	2.d\	v-	2f\	.	2.b\	.
=20-	=20-	=20-	=20-	=20-	=20-	=20-	=20-
2F\	v-	.	.	4f\	.	.	.
.	.	4c/	.	4e\	.	4a/	-ni-
2F\	-ni-	4B/	-ni-	4c\	-ni-	1a	-ge-
!	!	!LO:TX:t=P:problem=kreska pseudotaktowa	!	!	!	!	!
.	.	4A/	.	4d\	.	.	.
!	!	!	!	!LO:TX:t=P:problem=kreska pseudotaktowa	!	!	!
2.E\	-ge-	2B/	.	1e	-tu(m)	.	.
*	*	*	*	*	*	*custos:a	*
!	!	!	!	!	!	!LO:TX:t=P:problem=kreska pseudotaktowa	!
.	.	2.c/	-ni-	.	.	2g/	-ni-
!LO:TX:t=P:problem=kreska pseudotaktowa	!	!	!	!	!	!	!
4D/	.	.	.	.	.	.	.
!	!	!	!	!	!	!LO:LB:g=original	!
=21-	=21-	=21-	=21-	=21-	=21-	=21-	=21-
2C/	.	.	.	2r	.	2a,<\	-tu(m)
.	.	4B/	.	.	.	.	.
!	!	!	!	!	!	!LO:TX:t=P:problem=kreska pseudotaktowa	!
2D/	.	1A	ge-	2d\	et	2a\	Et
1BB	-ni-	.	.	2d\	ex	2b\	ex
!	!	!	!	!LO:TX:t=P:problem=kreska pseudotaktowa	!	!	!
.	.	2G/	-ni-	2d\	pa-	2b\	pa-
=22-	=22-	=22-	=22-	=22-	=22-	=22-	=22-
!LO:TX:t=P:problem=kreska pseudotaktowa	!	!LO:TX:t=P:problem=kreska pseudotaktowa	!	!	!	!	!
1AA	-tu(m)	1A	-tum	2c\	-tre	2.cc\	-tre
.	.	.	.	4A/	na-	.	.
!	!	!	!	!LO:TX:t=P:problem=kreska pseudotaktowa	!	!LO:TX:t=P:problem=kreska pseudotaktowa	!
.	.	.	.	4B/	.	4b\	na-
1r	.	2r	.	4c\	.	2a/	-tum
.	.	.	.	4d\	.	.	.
.	.	2G/	an-	1e\	.	2g/	om-
=23-	=23-	=23-	=23-	=23-	=23-	=23-	=23-
!	!	!	!	!	!	!LO:TX:t=P:problem=kreska pseudotaktowa	!
1D	an-	2A/	-te	.	.	1f	-ni-
.	.	2B/	om-	2d\	.	.	.
!LO:TX:t=P:problem=kreska pseudotaktowa	!	!LO:TX:t=P:problem=kreska pseudotaktowa	!	!	!	!	!
1A	-te	1c	-ni-	2e,<\	-tu(m)	2e/	-a
!	!	!	!	!LO:TX:t=P:problem=kreska pseudotaktowa	!	!	!
.	.	.	.	2A/	an-	1a\	ſe-
=24-	=24-	=24-	=24-	=24-	=24-	=24-	=24-
2E\	om-	1B	-a	2e,<\	-te	.	.
!	!	!	!	!	!	!LO:TX:t=P:problem=kreska pseudotaktowa	!
2G\	-ni-	.	.	2B/	om-	2g/	-cu-
2D/	-a	1.A	ſe-	2d\	-ni-	2a/	-la
2.F\	ſę-	.	.	2.c\	-a	2.f/	ſe-
=25-	=25-	=25-	=25-	=25-	=25-	=25-	=25-
.	.	.	.	.	.	.	.
*	*	*	*	*custos:c	*	*	*
4E/	.	.	.	4c\	ſę-	4e/	.
!LO:TX:t=P:problem=kreska pseudotaktowa	!	!LO:TX:t=P:problem=kreska pseudotaktowa	!	!LO:TX:t=P:problem=kreska pseudotaktowa	!	!	!
!	!	!	!	!LO:LB:g=original	!	!	!
2C/	.	2G/	-cu-	2c\	-cu-	1e	-cu-
*custos:AA	*	*	*	*	*	*	*
1D	-cu-	1F	-la	2A,</	-la	.	.
!	!	!	!	!	!	!LO:TX:t=P:problem=kreska pseudotaktowa	!
.	.	.	.	1A\	De-	2d/	-la
!LO:PB:g=original	!	!	!	!	!	!	!
=26-	=26-	=26-	=26-	=26-	=26-	=26-	=26-
2AA/	-la	2E/	De-	.	.	2e/	De-
!	!	!	!	!LO:TX:t=P:problem=kreska pseudotaktowa	!	!	!
1AA	de-	1A	-um	2A/	-u(m)	1e	-um
.	.	.	.	2c\	de	.	.
!	!	!LO:TX:t=P:problem=kreska pseudotaktowa	!	!	!	!LO:TX:t=P:problem=kreska pseudotaktowa	!
2AA/	-u(m)	2A/	De	2c\	de-	2e/	De
=27-	=27-	=27-	=27-	=27-	=27-	=27-	=27-
!	!	!	!	!LO:TX:t=P:problem=kreska pseudotaktowa	!	!	!
2E/	de	2G/	De-	1B	-o	2g/	De-
2E/	de-	2G/	-o	.	.	2g/	-o
!LO:TX:t=P:problem=kreska pseudotaktowa	!	!	!	!	!	!	!
1C	-o	2.c\	lu-	2r	.	2e/	lu-
!	!	!	!	!	!	!LO:TX:t=P:problem=kreska pseudotaktowa	!
.	.	.	.	2e\	lu-	2g/	-men
!	!	!LO:TX:t=P:problem=kreska pseudotaktowa	!	!	!	!	!
.	.	4B/	-men	.	.	.	.
=28-	=28-	=28-	=28-	=28-	=28-	=28-	=28-
0r	.	2A/	de	2e\	-me(n)	2a/	de
*	*	*custos:G	*	*	*	*	*
!	!	!	!	!LO:TX:t=P:problem=kreska pseudotaktowa	!	!	!
.	.	2A/	lu-	2c\	de	2cc\	lu-
!	!	!LO:LB:g=original	!	!	!	!	!
.	.	2G/	-mi-	2d\	lu-	2b\	.
.	.	2A/	.	2c\	.	1a\	.
=29-	=29-	=29-	=29-	=29-	=29-	=29-	=29-
!	!	!LO:TX:t=P:problem=kreska pseudotaktowa	!	!	!	!	!
2r	.	1E	-ne	1B	-mi-	.	.
*	*	*	*	*	*	*custos:a	*
!	!	!	!	!	!	!LO:TX:t=P:problem=kreska pseudotaktowa	!
2E/	de-	.	.	.	.	2g/	-mi-
!	!	!	!	!LO:TX:t=P:problem=kreska pseudotaktowa	!	!LO:TX:t=P:problem=kreska pseudotaktowa	!
!	!	!	!	!	!	!LO:PB:g=original	!
2F/	-u(m)	2r	.	1A	-ne	1a	-ne
!LO:TX:t=P:problem=kreska pseudotaktowa	!	!	!	!	!	!	!
2D/	ve-	2A/	de-	.	.	.	.
=30-	=30-	=30-	=30-	=30-	=30-	=30-	=30-
2.G\	-ru(m)	2B/	-um	00r	.	0r	.
!	!	!LO:TX:t=P:problem=kreska pseudotaktowa	!	!	!	!	!
.	.	2G/	ve-	.	.	.	.
!LO:TX:t=P:problem=kreska pseudotaktowa	!	!	!	!	!	!	!
4F/	.	.	.	.	.	.	.
4E/	.	2.c\	-rum	.	.	.	.
4D/	de	.	.	.	.	.	.
2.F\	de-	.	.	.	.	.	.
.	.	4B/	de	.	.	.	.
=31-	=31-	=31-	=31-	=31-	=31-	=31-	=31-
.	.	2A/	De-	.	.	1r	.
4E/	-o	.	.	.	.	.	.
!	!	!LO:TX:t=P:problem=kreska pseudotaktowa	!	!	!	!	!
1E	ve-	2G/	-o	.	.	.	.
.	.	1F	ve-	.	.	2r	.
!	!	!	!	!	!	!LO:TX:t=P:problem=kreska pseudotaktowa	!
2D/	.	.	.	.	.	2a/	ge-
=32-	=32-	=32-	=32-	=32-	=32-	=32-	=32-
!LO:TX:t=P:problem=kreska pseudotaktowa	!	!LO:TX:t=P:problem=kreska pseudotaktowa	!	!	!	!	!
1E	-ro	1E	-ro	2r	.	2cc\	-ni-
!	!	!	!	!LO:TX:t=P:problem=kreska pseudotaktowa	!	!	!
.	.	.	.	2G/	Ge-	2b\	-tum
!	!	!LO:TX:a:t=7.	!	!	!	!	!
2r	.	00r	.	2c\	-ni-	2a/	n(on)
!	!	!	!	!	!	!LO:TX:t=P:problem=kreska pseudotaktowa	!
2E/	Ge-	.	.	2B\	-tu(m)	2g/	fa-
=33-	=33-	=33-	=33-	=33-	=33-	=33-	=33-
2F/	-ni-	.	.	2A/	n(on)	2a/	-ctum
!LO:TX:t=P:problem=kreska pseudotaktowa	!	!	!	!LO:TX:t=P:problem=kreska pseudotaktowa	!	!	!
2E/	-tu(m)	.	.	2G/	fa-	4r	.
!	!	!	!	!	!	!LO:TX:t=P:problem=kreska pseudotaktowa	!
.	.	.	.	.	.	4e/	con-
2D/	n(on)	.	.	2A/	-ctu(m)	2f/	-ſub-
2C/	.	.	.	1c\	Con-	2e/	-ſtan-
=34-	=34-	=34-	=34-	=34-	=34-	=34-	=34-
1D	fac-	.	.	.	.	2f/	-ci-
!	!	!	!	!LO:TX:t=P:problem=kreska pseudotaktowa	!	!LO:TX:t=P:problem=kreska pseudotaktowa	!
.	.	.	.	2B\	-ſub-	2d/	-a-
!LO:TX:t=P:problem=kreska pseudotaktowa	!	!	!	!	!	!	!
1C	-tu(m)	0r	.	2c\	-ſtan-	4e/	.
.	.	.	.	.	.	4f/	.
.	.	.	.	2G/	-ti-	4g/	.
.	.	.	.	.	.	4e/	.
=35-	=35-	=35-	=35-	=35-	=35-	=35-	=35-
00r	.	.	.	2A/	-a-	2f/	-lem
!	!	!	!	!LO:TX:t=P:problem=kreska pseudotaktowa	!	!LO:TX:t=P:problem=kreska pseudotaktowa	!
.	.	.	.	2G/	.	2g/	pa-
*	*	*	*	*custos:c	*	*	*
!	!	!LO:TX:t=P:problem=kreska pseudotaktowa	!	!	!	!	!
.	.	1r	.	2A/	-lem	2e/	.
!	!	!	!	!LO:LB:g=original	!	!	!
.	.	.	.	2.c\	pa-	2.a/	.
=36-	=36-	=36-	=36-	=36-	=36-	=36-	=36-
.	.	1E	per	.	.	.	.
.	.	.	.	4B/	.	4g/	.
.	.	.	.	4A/	.	1g	.
!	!	!	!	!LO:TX:t=P:problem=kreska pseudotaktowa	!	!	!
.	.	.	.	4G/	.	.	.
.	.	1D	quem	2A/	.	.	.
.	.	.	.	2A/	.	2f/	.
=37-	=37-	=37-	=37-	=37-	=37-	=37-	=37-
!	!	!	!	!LO:TX:t=P:problem=kreska pseudotaktowa	!	!LO:TX:t=P:problem=kreska pseudotaktowa	!
2r	.	2.G/	om-	1G	-tri	1g	-tri
2E/	per	.	.	.	.	.	.
!	!	!LO:TX:t=P:problem=kreska pseudotaktowa	!	!	!	!	!
.	.	4G/	-ni-	.	.	.	.
2D/	qu(em)	2F/	-a	1r	.	2r	.
*custos:F	*	*	*	*	*	*custos:a	*
!LO:TX:t=P:problem=kreska pseudotaktowa	!	!	!	!	!	!LO:TX:t=P:problem=kreska pseudotaktowa	!
2C/	om-	1E/	fa-	.	.	2g/	per
!LO:LB:g=original	!	!	!	!	!	!LO:LB:g=original	!
=38-	=38-	=38-	=38-	=38-	=38-	=38-	=38-
2.F\	-ni-	.	.	2r	.	4a\	quem
.	.	.	.	.	.	4g\	.
.	.	2D/	-cta	1A	Qui	4a\	om-
!	!	!	!	!	!	!LO:TX:t=P:problem=kreska pseudotaktowa	!
4F\	-a	.	.	.	.	4b\	-ni-
!	!	!LO:TX:t=P:problem=kreska pseudotaktowa	!	!	!	!	!
2E\	fac-	0E	ſunt	.	.	2cc\	-a
!	!	!	!	!LO:TX:t=P:problem=kreska pseudotaktowa	!	!	!
2E\	-ta	.	.	2G/	pro-	2.b\	fa-
=39-	=39-	=39-	=39-	=39-	=39-	=39-	=39-
*lig	*	*	*	*	*	*	*
1AA	ſunt	.	.	2A/	-pter	.	.
.	.	.	.	.	.	4a/	.
.	.	.	.	2c\	nos	1a	.
!LO:TX:t=P:problem=kreska pseudotaktowa	!	!	!	!	!	!	!
1E	.	2r	.	2B\	ho-	.	.
.	.	1E/	Qui	2B\	-(m)i-	2g/	-cta
*Xlig	*	*	*	*	*	*	*
=40-	=40-	=40-	=40-	=40-	=40-	=40-	=40-
!	!	!	!	!LO:TX:t=P:problem=kreska pseudotaktowa	!	!LO:TX:t=P:problem=kreska pseudotaktowa	!
2AA/	Qui	.	.	0A	-(n)es	0a	ſunt
1AA	pro-	2E/	pro-	.	.	.	.
.	.	2F/	-pter	.	.	.	.
*	*	*custos:E	*	*	*	*	*
!	!	!LO:TX:t=P:problem=kreska pseudotaktowa	!	!	!	!	!
!LO:TX:t=P:problem=kreska pseudotaktowa	!	!	!	!	!	!	!
2AA/	-pt(er)	2E/	nos	.	.	.	.
!	!	!LO:LB:g=original	!	!	!	!	!
=41-	=41-	=41-	=41-	=41-	=41-	=41-	=41-
2.C/	nos	4E/	ho-	0r	.	00r	.
.	.	4D/	.	.	.	.	.
.	.	4E/	-mi-	.	.	.	.
!	!	!LO:TX:t=P:problem=kreska pseudotaktowa	!	!	!	!	!
4D/	.	4F/	.	.	.	.	.
2E/	.	4G/	.	.	.	.	.
.	.	4A/	.	.	.	.	.
2.D/	ho-	2.B/	.	.	.	.	.
=42-	=42-	=42-	=42-	=42-	=42-	=42-	=42-
.	.	.	.	1r	.	.	.
4C/	.	4A/	.	.	.	.	.
4BB/	.	1A	.	.	.	.	.
4AA/	.	.	.	.	.	.	.
1BB	-mi-	.	.	2r	.	.	.
!	!	!	!	!LO:TX:t=P:problem=kreska pseudotaktowa	!	!	!
.	.	2G/	.	2d\	et	.	.
=43-	=43-	=43-	=43-	=43-	=43-	=43-	=43-
!LO:TX:t=P:problem=kreska pseudotaktowa	!	!LO:TX:t=P:problem=kreska pseudotaktowa	!	!	!	!	!
1AA	-nes	1A	-nes	2d\	pro-	2r	.
!	!	!	!	!	!	!LO:TX:t=P:problem=kreska pseudotaktowa	!
.	.	.	.	2c\	-pt(er)	2a\	qui
1r	.	2r	.	4d\	no-	4a\	pro-
.	.	.	.	4e\	.	4g\	.
.	.	2A/	et	4f\	.	4a\	-pter
!	!	!	!	!LO:TX:t=P:problem=kreska pseudotaktowa	!	!	!
.	.	.	.	4d\	.	4b\	.
=44-	=44-	=44-	=44-	=44-	=44-	=44-	=44-
2r	.	2A/	pro-	2e\	.	4cc\	noſ-
.	.	.	.	.	.	4a/	-tram
!	!	!LO:TX:t=P:problem=kreska pseudotaktowa	!	!	!	!	!
2D/	et	2A/	-pter	2f\	.	2.dd\	ſa-
2D/	pro-	1B	noſ-	2d\	-ſtra(m)	.	.
.	.	.	.	.	.	4cc\	.
!LO:TX:t=P:problem=kreska pseudotaktowa	!	!	!	!LO:TX:t=P:problem=kreska pseudotaktowa	!	!	!
2D/	-pter	.	.	2f\	ſa-	4b\	.
!	!	!	!	!	!	!LO:TX:t=P:problem=kreska pseudotaktowa	!
.	.	.	.	.	.	4a\	.
=45-	=45-	=45-	=45-	=45-	=45-	=45-	=45-
1E	noſ-	1.c	-tram	1e	-lu-	2g/	.
.	.	.	.	.	.	4a/	-lu-
.	.	.	.	.	.	4g/	.
!	!	!	!	!LO:TX:t=P:problem=kreska pseudotaktowa	!	!	!
2.F\	-stra(m)	.	.	1A	-tem	2a/	-tem
!	!	!	!	!	!	!LO:TX:t=P:problem=kreska pseudotaktowa	!
.	.	4B/	.	.	.	2a/	de-
!	!	!LO:TX:t=P:problem=kreska pseudotaktowa	!	!	!	!	!
4E/	.	4A/	.	.	.	.	.
=46-	=46-	=46-	=46-	=46-	=46-	=46-	=46-
4D/	.	2B/	ſa-	1r	.	1.dd	-ſcen-
4C/	.	.	.	.	.	.	.
4BB/	.	1A	-lu-	.	.	.	.
!LO:TX:t=P:problem=kreska pseudotaktowa	!	!	!	!	!	!	!
4AA/	.	.	.	.	.	.	.
*	*	*	*	*custos:d	*	*	*
2BB/	ſa-	.	.	2r	.	.	.
!	!	!	!	!LO:LB:g=original	!	!	!
!	!	!LO:TX:t=P:problem=kreska pseudotaktowa	!	!LO:TX:t=P:problem=kreska pseudotaktowa	!	!LO:TX:t=P:problem=kreska pseudotaktowa	!
2BB/	-lu-	2G/	.	2d\	de-	2dd\	-dit
=47-	=47-	=47-	=47-	=47-	=47-	=47-	=47-
2AA/	-te(m)	2A,</	-tem	2f\	-ſcen-	2.cc\	de
*custos:A	*	*	*	*	*	*	*
!LO:TX:t=P:problem=kreska pseudotaktowa	!	!	!	!	!	!	!
2A\	de-	2c\	deſ-	1e	.	.	.
.	.	.	.	.	.	4b\	.
*	*	*	*	*	*	*custos:cc	*
!LO:LB:g=original	!	!	!	!	!	!	!
2A\	-ſcen-	2c\	-cen-	.	.	2a\	.
!LO:TX:t=P:problem=kreska pseudotaktowa	!	!LO:TX:t=P:problem=kreska pseudotaktowa	!	!LO:TX:t=P:problem=kreska pseudotaktowa	!	!LO:TX:t=P:problem=kreska pseudotaktowa	!
!	!	!	!	!	!	!LO:LB:g=original	!
2A\	-dit	2A/	-dit	2c/	-dit	2cc\	cae-
=48-	=48-	=48-	=48-	=48-	=48-	=48-	=48-
2D/	de	4d\	de	2f\	de	2b\	.
.	.	4c\	.	.	.	.	.
2F\	cę-	4B\	.	2d\	cę-	1a	.
.	.	4A\	.	.	.	.	.
!	!	!	!	!LO:TX:t=P:problem=kreska pseudotaktowa	!	!	!
1E	.	1B	cae-	1e	-lis	.	.
.	.	.	.	.	.	2g/	.
=49-	=49-	=49-	=49-	=49-	=49-	=49-	=49-
!LO:TX:t=P:problem=kreska pseudotaktowa	!	!LO:TX:t=P:problem=kreska pseudotaktowa	!	!	!	!LO:TX:t=P:problem=kreska pseudotaktowa	!
0AA	-lis	0A	-lis	2r	.	1a	-lis
.	.	.	.	2E/	Et	.	.
.	.	.	.	2E/	in-	2r	.
!	!	!	!	!LO:TX:t=P:problem=kreska pseudotaktowa	!	!	!
.	.	.	.	2E/	-car-	2e/	Et
=50-	=50-	=50-	=50-	=50-	=50-	=50-	=50-
2r	.	1r	.	2.A/	-na-	2e/	in-
!	!	!	!	!	!	!LO:TX:t=P:problem=kreska pseudotaktowa	!
2AA/	Et	.	.	.	.	2e/	-car-
.	.	.	.	4B/	-tus	.	.
*	*	*custos:E	*	*	*	*	*
2AA/	in-	2r	.	2c\	eſt	2a\	-na-
!	!	!LO:LB:g=original	!	!	!	!	!
!LO:TX:t=P:problem=kreska pseudotaktowa	!	!LO:TX:t=P:problem=kreska pseudotaktowa	!	!LO:TX:t=P:problem=kreska pseudotaktowa	!	!	!
2AA/	-car-	2E/	Et	2c\	de	2a\	-tus
=51-	=51-	=51-	=51-	=51-	=51-	=51-	=51-
2E\	-na-	2E/	in-	2B\	ſpi-	2g/	e(st)
!	!	!	!	!	!	!LO:TX:t=P:problem=kreska pseudotaktowa	!
2E\	-tus	2E/	-car-	2B\	-ri-	2g/	de
2AA/	e(st)	2A/	-na-	2c\	-tu	2cc\	ſpi-
!LO:TX:t=P:problem=kreska pseudotaktowa	!	!LO:TX:t=P:problem=kreska pseudotaktowa	!	!LO:TX:t=P:problem=kreska pseudotaktowa	!	!	!
2AA/	de	2A/	-tus	2A\	ſan-	2cc\	-ri-
=52-	=52-	=52-	=52-	=52-	=52-	=52-	=52-
2E\	spi-	2G/	e(st)	2.B\	.	1b	-tu
!LO:TX:t=P:problem=kreska pseudotaktowa	!	!LO:TX:t=P:problem=kreska pseudotaktowa	!	!	!	!	!
2E\	-ri-	2G/	de	.	.	.	.
.	.	.	.	8c\	.	.	.
.	.	.	.	8d\	.	.	.
!	!	!	!	!LO:TX:t=P:problem=kreska pseudotaktowa	!	!LO:TX:t=P:problem=kreska pseudotaktowa	!
4AA/	-tu	2c\	ſpi-	1e	-cto	1a	San-
4BB/	.	.	.	.	.	.	.
4C/	.	2c\	-ri-	.	.	.	.
4D/	.	.	.	.	.	.	.
=53-	=53-	=53-	=53-	=53-	=53-	=53-	=53-
2E\	.	2B\	-tu	0r	.	2g/	.
2F\	ſan-	1A	ſan-	.	.	2a/	.
!LO:TX:t=P:problem=kreska pseudotaktowa	!	!	!	!	!	!	!
1E	-cto	.	.	.	.	2.b\	.
!	!	!LO:TX:t=P:problem=kreska pseudotaktowa	!	!	!	!	!
.	.	2G/	.	.	.	.	.
.	.	.	.	.	.	8a\	.
!	!	!	!	!	!	!LO:TX:t=P:problem=kreska pseudotaktowa	!
.	.	.	.	.	.	8b\	.
=54-	=54-	=54-	=54-	=54-	=54-	=54-	=54-
2r	.	2A,</	-cto	1.e	Ex	2cc,<\	-cto
1C	ex	1c	ex	.	.	1g	Ex
!LO:TX:t=P:problem=kreska pseudotaktowa	!	!LO:TX:t=P:problem=kreska pseudotaktowa	!	!LO:TX:t=P:problem=kreska pseudotaktowa	!	!LO:TX:t=P:problem=kreska pseudotaktowa	!
2C/	Ma-	2c\	Ma-	2e\	Ma-	2g/	Ma-
=55-	=55-	=55-	=55-	=55-	=55-	=55-	=55-
2C/	-ri-	2.c\	-ri-	2e\	-ri-	2a/	-ri-
*	*	*	*	*custos:d	*	*	*
!	!	!	!	!LO:TX:t=P:problem=kreska pseudotaktowa	!	!	!
2C/	-a	.	.	2e\	-a	2g/	-a
.	.	4B\	a	.	.	.	.
!	!	!	!	!LO:LB:g=original	!	!	!
2D/	vir-	2A/	vir-	2.d\	vir-	2g/	vir-
*	*	*	*	*	*	*custos:g	*
!	!	!	!	!	!	!LO:TX:t=P:problem=kreska pseudotaktowa	!
2D/	-gi-	2A/	-gi-	.	.	2f/	-gi-
.	.	.	.	4c\	-gi-	.	.
!	!	!	!	!	!	!LO:LB:g=original	!
=56-	=56-	=56-	=56-	=56-	=56-	=56-	=56-
*custos:C	*	*	*	*	*	*	*
!LO:TX:t=P:problem=kreska pseudotaktowa	!	!	!	!	!	!	!
!	!	!LO:TX:t=P:problem=kreska pseudotaktowa	!	!LO:TX:t=P:problem=kreska pseudotaktowa	!	!LO:TX:t=P:problem=kreska pseudotaktowa	!
1E	-ne	0G	-ne	1B	-ne	1g	-ne
!LO:LB:g=original	!	!	!	!	!	!	!
1.C	et	.	.	1.c	et	1.e	Et
=57-	=57-	=57-	=57-	=57-	=57-	=57-	=57-
.	.	2r	.	.	.	.	.
2C/	ho-	1G	Et	2c\	ho-	2e/	ho-
!LO:TX:t=P:problem=kreska pseudotaktowa	!	!	!	!	!	!LO:TX:t=P:problem=kreska pseudotaktowa	!
1D	-mo	.	.	2A/	-mo	1f	-mo
!	!	!LO:TX:t=P:problem=kreska pseudotaktowa	!	!LO:TX:t=P:problem=kreska pseudotaktowa	!	!	!
.	.	2F/	ho-	2B\	fa-	.	.
=58-	=58-	=58-	=58-	=58-	=58-	=58-	=58-
2C/	.	2G/	-mo	2c\	.	2.e/	fa-
2AA/	fa-	2c\	fa-	1e	.	.	.
.	.	.	.	.	.	4f/	.
2E\	.	2B\	.	.	.	2g/	.
!	!	!LO:TX:t=P:problem=kreska pseudotaktowa	!	!	!	!	!
2F\	.	2A\	.	2d\	-ctus	1a/	.
=59-	=59-	=59-	=59-	=59-	=59-	=59-	=59-
!LO:TX:t=P:problem=kreska pseudotaktowa	!	!	!	!LO:TX:t=P:problem=kreska pseudotaktowa	!	!	!
1E	-ctus	1B	-ctus	1e	eſt	.	.
!	!	!	!	!	!	!LO:TX:t=P:problem=kreska pseudotaktowa	!
.	.	.	.	.	.	2g/	-ctus
!	!	!LO:TX:t=P:problem=kreska pseudotaktowa	!	!	!	!	!
2AA,</	e(st)	1A	e(st)	2r	.	2a,</	eſt
!LO:TX:t=P:problem=kreska pseudotaktowa	!	!	!	!	!	!LO:TX:t=P:problem=kreska pseudotaktowa	!
2AA/	Cru-	.	.	2c\	Cru-	2e/	Cru-
=60-	=60-	=60-	=60-	=60-	=60-	=60-	=60-
*	*	*custos:A	*	*	*	*	*
2AA/	-ci-	2r	.	2c\	-ci-	2e/	-ci-
!	!	!LO:LB:g=original	!	!	!	!	!
!	!	!LO:TX:t=P:problem=kreska pseudotaktowa	!	!LO:TX:t=P:problem=kreska pseudotaktowa	!	!	!
2AA/	-fi-	2A/	Cru-	2c\	-fi-	2e/	-fi-
2.D/	-xus	2A/	-ci-	2.d\	-xus	2.f/	-xus
!	!	!LO:TX:t=P:problem=kreska pseudotaktowa	!	!	!	!	!
.	.	2A/	-fi-	.	.	.	.
!	!	!	!	!	!	!LO:TX:t=P:problem=kreska pseudotaktowa	!
4C/	e-	.	.	4d\	e-	4f/	e-
=61-	=61-	=61-	=61-	=61-	=61-	=61-	=61-
2C/	-ti-	2.c\	-xus	2e\	-ti-	2g/	-ti-
!LO:TX:t=P:problem=kreska pseudotaktowa	!	!	!	!LO:TX:t=P:problem=kreska pseudotaktowa	!	!	!
2AA/	-a(m)	.	.	2e\	-a(m)	2a\	-am
.	.	4c\	e-	.	.	.	.
1E	pro	2B\	-ti-	2e\	pro	2a\	pro
!	!	!LO:TX:t=P:problem=kreska pseudotaktowa	!	!	!	!	!
.	.	2B\	-am	2e\	no-	2g/	no-
=62-	=62-	=62-	=62-	=62-	=62-	=62-	=62-
!	!	!	!	!LO:TX:t=P:problem=kreska pseudotaktowa	!	!LO:TX:t=P:problem=kreska pseudotaktowa	!
2.F\	no-	2.A/	pro	1c	-b(is)	1a	-bis
4E/	.	4G/	no-	.	.	.	.
4D/	.	4F/	.	2r	.	2r	.
4C/	.	4E/	.	.	.	.	.
1D\	.	1F/	.	2d\	ſub	2a\	ſu(b)
=63-	=63-	=63-	=63-	=63-	=63-	=63-	=63-
.	.	.	.	2d\	Pon-	2a\	Pon-
!	!	!	!	!LO:TX:t=P:problem=kreska pseudotaktowa	!	!LO:TX:t=P:problem=kreska pseudotaktowa	!
4C/	.	4E/	.	2d\	-ti-	2b\	-ti-
4BB/	.	4D/	.	.	.	.	.
!LO:TX:t=P:problem=kreska pseudotaktowa	!	!LO:TX:t=P:problem=kreska pseudotaktowa	!	!	!	!	!
1AA	-bis	1E	-bis	4c\	-o	2.cc\	-o
.	.	.	.	4d\	.	.	.
.	.	.	.	4e\	.	.	.
*	*	*	*	*custos:d	*	*	*
!	!	!	!	!LO:TX:t=P:problem=kreska pseudotaktowa	!	!	!
.	.	.	.	4c\	.	4b\	.
!	!	!	!	!LO:PB:g=original	!	!	!
=64-	=64-	=64-	=64-	=64-	=64-	=64-	=64-
1r	.	2r	.	4d\	.	4a\	.
.	.	.	.	4e\	.	4g\	.
.	.	2D/	paſ-	2.f\	Py-	2.a\	.
2r	.	4D/	-sus	.	.	.	.
.	.	4E/	.	4e\	.	4g/	.
!LO:TX:t=P:problem=kreska pseudotaktowa	!	!	!	!	!	!	!
2D/	paſ-	4F/	.	4d\	.	4f/	.
*	*	*	*	*	*	*custos:f	*
!	!	!LO:TX:t=P:problem=kreska pseudotaktowa	!	!LO:TX:t=P:problem=kreska pseudotaktowa	!	!	!
.	.	4G/	.	4c\	.	4e/	.
!	!	!	!	!	!	!LO:LB:g=original	!
=65-	=65-	=65-	=65-	=65-	=65-	=65-	=65-
4D/	-ſus	1A	.	2d\	.	2f/	Pi-
4E/	.	.	.	.	.	.	.
!	!	!	!	!	!	!LO:TX:t=P:problem=kreska pseudotaktowa	!
4F\	.	.	.	2d\	-la-	2f/	-la-
4G\	.	.	.	.	.	.	.
*custos:AA	*	*	*	*	*	*	*
2A\	.	2r	.	2c\	-to	2e/	-to
!LO:LB:g=original	!	!	!	!	!	!	!
!LO:TX:t=P:problem=kreska pseudotaktowa	!	!LO:TX:t=P:problem=kreska pseudotaktowa	!	!LO:TX:t=P:problem=kreska pseudotaktowa	!	!	!
2AA/	et	2A/	et	2e\	paſ-	2.cc\	paſ-
=66-	=66-	=66-	=66-	=66-	=66-	=66-	=66-
4AA/	ſe-	1c	ſe-	2e\	-ſus	.	.
4BB/	.	.	.	.	.	4b\	-sus
!	!	!	!	!	!	!LO:TX:t=P:problem=kreska pseudotaktowa	!
4C/	.	.	.	1e	et	2a/	et
4D/	.	.	.	.	.	.	.
2E/	.	2B/	-pul-	.	.	2g/	ſe-
!	!	!LO:TX:t=P:problem=kreska pseudotaktowa	!	!LO:TX:t=P:problem=kreska pseudotaktowa	!	!	!
2F\	-pul-	2A/	.	2d\	ſe-	1a\	-pul-
=67-	=67-	=67-	=67-	=67-	=67-	=67-	=67-
1E	-tus	1B	-tus	2e\	-pul-	.	.
.	.	.	.	2e\	-tus	2g/	-tus
!LO:TX:t=P:problem=kreska pseudotaktowa	!	!LO:TX:t=P:problem=kreska pseudotaktowa	!	!LO:TX:t=P:problem=kreska pseudotaktowa	!	!LO:TX:t=P:problem=kreska pseudotaktowa	!
0AA	eſt	0A	e(st)	1c	eſt	1a	eſt
=68-	=68-	=68-	=68-	=68-	=68-	=68-	=68-
.	.	.	.	2r	.	2r	.
!	!	!	!	!LO:TX:t=P:problem=kreska pseudotaktowa	!	!LO:TX:t=P:problem=kreska pseudotaktowa	!
.	.	.	.	2A/	Et	2cc\	Et
*	*	*custos:A	*	*	*	*	*
!	!	!LO:TX:t=P:problem=kreska pseudotaktowa	!	!	!	!	!
!	!	!LO:TX:a:t=2	!	!	!	!	!
00r	.	0r	.	4A/	re-	2.cc\	re-
.	.	.	.	4B/	.	.	.
.	.	.	.	4c/	.	.	.
.	.	.	.	4d/	.	4b\	.
=69-	=69-	=69-	=69-	=69-	=69-	=69-	=69-
.	.	.	.	2e\	-ſur-	4cc\	.
.	.	.	.	.	.	4a\	-ſu-
!	!	!	!	!LO:TX:t=P:problem=kreska pseudotaktowa	!	!LO:TX:t=P:problem=kreska pseudotaktowa	!
.	.	.	.	2d\	-re-	2b\	-re-
!	!	!LO:PB:g=original	!	!	!	!	!
.	.	2r	.	2f\	-xit	2a\	-xit
.	.	1A\	ter-	2e\	ter-	1cc\	ter-
=70-	=70-	=70-	=70-	=70-	=70-	=70-	=70-
.	.	.	.	2A/	-ci-	.	.
!	!	!LO:TX:t=P:problem=kreska pseudotaktowa	!	!	!	!LO:TX:t=P:problem=kreska pseudotaktowa	!
.	.	2G/	-ci-	1e	-a	2b\	-ci-
1r	.	2F/	-a	.	.	2a\	-a
!	!	!	!	!LO:TX:t=P:problem=kreska pseudotaktowa	!	!	!
.	.	2F/	di-	2d\	di-	2a\	di-
=71-	=71-	=71-	=71-	=71-	=71-	=71-	=71-
2r	.	2E/	-e	2e\	-e	2g/	-e
!LO:TX:t=P:problem=kreska pseudotaktowa	!	!LO:TX:t=P:problem=kreska pseudotaktowa	!	!	!	!LO:TX:t=P:problem=kreska pseudotaktowa	!
2AA/	ſe-	2c/	ſe-	2e\	ſe-	2a/	ſe-
2E\	-cun-	2B/	-cun-	2e\	-cun-	2g/	-cun-
*	*	*	*	*custos:c	*	*	*
!	!	!	!	!LO:TX:t=P:problem=kreska pseudotaktowa	!	!	!
2F\	-du(m)	2A/	-dum	2c/	-du(m)	2f/	-dum
!	!	!	!	!LO:LB:g=original	!	!	!
=72-	=72-	=72-	=72-	=72-	=72-	=72-	=72-
2C/	ſcrip-	2G/	ſcrip-	2c\	ſcrip-	2e/	ſcrip-
!LO:TX:t=P:problem=kreska pseudotaktowa	!	!	!	!	!	!	!
2D/	-t(u-	2F/	-tu-	2A/	-tu-	2d/	-tu-
!	!	!LO:TX:t=P:problem=kreska pseudotaktowa	!	!LO:TX:t=P:problem=kreska pseudotaktowa	!	!LO:TX:t=P:problem=kreska pseudotaktowa	!
2AA/	-ras)	1E	-ras	0A	-ras	0.e	-ras
1AA/	et	.	.	.	.	.	.
=73-	=73-	=73-	=73-	=73-	=73-	=73-	=73-
.	.	2r	.	.	.	.	.
!LO:TX:t=P:problem=kreska pseudotaktowa	!	!	!	!	!	!	!
2AA/	aſ-	1E	Et	.	.	.	.
2.C/	-cen-	.	.	2r	.	.	.
!	!	!LO:TX:t=P:problem=kreska pseudotaktowa	!	!	!	!	!
.	.	2E/	aſ-	1e\	Et	.	.
4D/	.	.	.	.	.	.	.
=74-	=74-	=74-	=74-	=74-	=74-	=74-	=74-
*	*	*	*	*	*	*custos:cc	*
!	!	!	!	!	!	!LO:TX:t=P:problem=kreska pseudotaktowa	!
2E\	.	2G/	-cen-	.	.	00r	.
!LO:TX:t=P:problem=kreska pseudotaktowa	!	!	!	!LO:TX:t=P:problem=kreska pseudotaktowa	!	!	!
2C/	.	2A/	-dit	2e\	aſ-	.	.
2D/	.	2B/	.	2d\	-cen-	.	.
2E\	-dit	2.c\	in	2G/	-dit	.	.
=75-	=75-	=75-	=75-	=75-	=75-	=75-	=75-
2AA/	in	.	.	1c	in	.	.
.	.	4B/	.	.	.	.	.
!LO:TX:t=P:problem=kreska pseudotaktowa	!	!	!	!	!	!	!
2C/	cę-	1A	cae-	.	.	.	.
!	!	!	!	!LO:TX:t=P:problem=kreska pseudotaktowa	!	!	!
1BB	.	.	.	1d	cae-	.	.
.	.	2G/	.	.	.	.	.
!	!	!	!	!	!	!LO:PB:g=original	!
=76-	=76-	=76-	=76-	=76-	=76-	=76-	=76-
!	!	!LO:TX:t=P:problem=kreska pseudotaktowa	!	!	!	!	!
2AA/	-lu(m)	1A	lum	2c\	-lu(m)	2r	.
!LO:TX:t=P:problem=kreska pseudotaktowa	!	!	!	!	!	!LO:TX:t=P:problem=kreska pseudotaktowa	!
2A\	ſe-	.	.	2A/	ſe-	2cc\	ſe-
2.A\	-det	0r	.	2.c\	-det	2cc\	-det
.	.	.	.	.	.	2cc\	ad
!	!	!	!	!LO:TX:t=P:problem=kreska pseudotaktowa	!	!	!
4A\	ad	.	.	4c\	ad	.	.
=77-	=77-	=77-	=77-	=77-	=77-	=77-	=77-
*custos:F	*	*	*	*	*	*	*
2D/	dex-	.	.	2d\	dex-	2b\	dex-
!LO:PB:g=original	!	!	!	!	!	!LO:TX:t=P:problem=kreska pseudotaktowa	!
2F/	-te-	.	.	2c\	-te-	2a/	-te-
2D/	-ra(m)	2r	.	2d\	-ra(m)	2a/	-ram
!LO:TX:t=P:problem=kreska pseudotaktowa	!	!	!	!	!	!	!
2E/	p(at)-	2G/	Et	2B/	p(at)-	2g/	p(at)-
=78-	=78-	=78-	=78-	=78-	=78-	=78-	=78-
!	!	!	!	!LO:TX:t=P:problem=kreska pseudotaktowa	!	!LO:TX:t=P:problem=kreska pseudotaktowa	!
2AA/	-r(is)	2.c\	i-	1A	-r(is)	0a	-ris
2C/	et	.	.	.	.	.	.
!	!	!LO:TX:t=P:problem=kreska pseudotaktowa	!	!	!	!	!
.	.	4c\	-te-	.	.	.	.
2.F\	i-	2c\	-rum	2r	.	.	.
*	*	*custos:B	*	*	*	*	*
!	!	!LO:TX:t=P:problem=kreska pseudotaktowa	!	!	!	!	!
.	.	2c\	ven-	2c\	et	.	.
!LO:TX:t=P:problem=kreska pseudotaktowa	!	!	!	!	!	!	!
4F\	-te-	.	.	.	.	.	.
!	!	!LO:LB:g=original	!	!	!	!	!
=79-	=79-	=79-	=79-	=79-	=79-	=79-	=79-
2D/	-ru(m)	2B/	-tu-	2f\	i-	00r	.
!	!	!LO:TX:t=P:problem=kreska pseudotaktowa	!	!LO:TX:t=P:problem=kreska pseudotaktowa	!	!	!
2E/	ven-	2G/	-rus	2e\	-te-	.	.
2AA/	-tu-	2A/	eſt	2c\	-ru(m)	.	.
!LO:TX:t=P:problem=kreska pseudotaktowa	!	!	!	!	!	!	!
2D/	.	2.B/	.	2.d\	ven-	.	.
=80-	=80-	=80-	=80-	=80-	=80-	=80-	=80-
*lig	*	*	*	*	*	*	*
1F	-rus	.	.	.	.	.	.
.	.	4A/	.	4c/	.	.	.
.	.	1A	.	4B/	.	.	.
!	!	!	!	!LO:TX:t=P:problem=kreska pseudotaktowa	!	!	!
.	.	.	.	4A/	.	.	.
1E	.	.	.	2B/	-tu-	.	.
.	.	2G/	.	2B/	-r(us)	.	.
*Xlig	*	*	*	*	*	*	*
=81-	=81-	=81-	=81-	=81-	=81-	=81-	=81-
!	!	!LO:TX:t=P:problem=kreska pseudotaktowa	!	!	!	!	!
2AA/	eſt	1A	.	2A/	e(st)	00r	.
*	*	*	*	*custos:F	*	*	*
!	!	!	!	!LO:TX:t=P:problem=kreska pseudotaktowa	!	!	!
!LO:TX:t=P:problem=kreska pseudotaktowa	!	!	!	!	!	!	!
2D/	cu(m)	.	.	2F/	cu(m)	.	.
!	!	!	!	!LO:LB:g=original	!	!	!
2.D/	glo-	2r	.	4F/	glo-	.	.
.	.	.	.	4G/	.	.	.
.	.	2A/	cum	4A/	.	.	.
4D/	-ri-	.	.	4B/	.	.	.
=82-	=82-	=82-	=82-	=82-	=82-	=82-	=82-
2C/	-a	2.A/	glo-	2c\	.	.	.
!LO:TX:t=P:problem=kreska pseudotaktowa	!	!	!	!LO:TX:t=P:problem=kreska pseudotaktowa	!	!	!
2AA/	iu-	.	.	2c\	-ri-	.	.
!	!	!LO:TX:t=P:problem=kreska pseudotaktowa	!	!	!	!	!
.	.	4A/	-ri-	.	.	.	.
2BB/	-di-	2G/	-a	2d\	-a	.	.
2C/	.	2E/	.	2.e\	iu-	.	.
=83-	=83-	=83-	=83-	=83-	=83-	=83-	=83-
1D	-ca-	1F	iu-	.	.	00r	.
.	.	.	.	4d\	.	.	.
.	.	.	.	1d	-di-	.	.
!LO:TX:t=P:problem=kreska pseudotaktowa	!	!LO:TX:t=P:problem=kreska pseudotaktowa	!	!	!	!	!
1AA	-re	1E	-di-	.	.	.	.
!	!	!	!	!LO:TX:t=P:problem=kreska pseudotaktowa	!	!	!
.	.	.	.	2c\	-ca-	.	.
=84-	=84-	=84-	=84-	=84-	=84-	=84-	=84-
2r	.	2D/	-ca-	2.d\	-re	.	.
!LO:TX:t=P:problem=kreska pseudotaktowa	!	!	!	!	!	!	!
2D/	vi-	2F/	-re	.	.	.	.
.	.	.	.	4c\	vi-	.	.
2E/	-uos	2G/	vi-	2B/	-uos	.	.
!LO:TX:t=P:problem=kreska pseudotaktowa	!	!LO:TX:t=P:problem=kreska pseudotaktowa	!	!LO:TX:t=P:problem=kreska pseudotaktowa	!	!	!
2F\	et	2A/	-uos	2A/	et	.	.
=85-	=85-	=85-	=85-	=85-	=85-	=85-	=85-
!	!	!	!	!	!	!LO:TX:t=P:problem=kreska pseudotaktowa	!
2D/	mor-	2A/	et	2B/	mor-	1r	.
2E/	-tu-	2G/	mor-	2B/	-tu-	.	.
!	!	!	!	!LO:TX:t=P:problem=kreska pseudotaktowa	!	!	!
2AA/	-os	2A/	-tu-	1A	-os	2r	.
*custos:AA	*	*	*	*	*	*	*
!LO:TX:t=P:problem=kreska pseudotaktowa	!	!	!	!	!	!	!
!	!	!LO:TX:t=P:problem=kreska pseudotaktowa	!	!	!	!LO:TX:t=P:problem=kreska pseudotaktowa	!
2AA/	Cu-	2A/	-os	.	.	2cc\	cu-
!LO:LB:g=original	!	!	!	!	!	!	!
=86-	=86-	=86-	=86-	=86-	=86-	=86-	=86-
2AA/	-ius	2A/	cu-	2r	.	2cc\	-ius
!	!	!	!	!LO:TX:t=P:problem=kreska pseudotaktowa	!	!	!
2AA/	re-	2A/	-ius	2e\	Cu-	2cc\	re-
1E	-gni	1G	re-	2e\	-ius	1b	-gni
.	.	.	.	2e\	re-	.	.
=87-	=87-	=87-	=87-	=87-	=87-	=87-	=87-
*	*	*custos:c	*	*	*	*	*
!	!	!LO:TX:t=P:problem=kreska pseudotaktowa	!	!	!	!	!
!LO:TX:t=P:problem=kreska pseudotaktowa	!	!	!	!	!	!LO:TX:t=P:problem=kreska pseudotaktowa	!
1F	n(on)	1A	-gni	2c\	-gni	1a	non
!	!	!	!	!LO:TX:t=P:problem=kreska pseudotaktowa	!	!	!
.	.	.	.	2d\	n(on)	.	.
!	!	!LO:LB:g=original	!	!	!	!	!
2C/	e-	2.c\	non	2e\	e-	2g/	e-
1F\	-rit	.	.	2.c\	-rit	1a\	-rit
.	.	4B\	.	.	.	.	.
=88-	=88-	=88-	=88-	=88-	=88-	=88-	=88-
.	.	2A/	.	.	.	.	.
.	.	.	.	4F/	.	.	.
!LO:TX:t=P:problem=kreska pseudotaktowa	!	!LO:TX:t=P:problem=kreska pseudotaktowa	!	!	!	!LO:TX:t=P:problem=kreska pseudotaktowa	!
2C/	fi-	2E/	e-	2.c\	fi-	2g/	fi-
2D/	.	2F/	-rit	.	.	2f/	.
.	.	.	.	4B/	.	.	.
2E/	.	2G/	.	2.B/	.	1e/	.
=89-	=89-	=89-	=89-	=89-	=89-	=89-	=89-
*	*	*lig	*	*	*	*	*
1F	.	1A	fi-	.	.	.	.
.	.	.	.	4A/	.	.	.
.	.	.	.	1A	.	2d/	.
!LO:TX:t=P:problem=kreska pseudotaktowa	!	!	!	!	!	!	!
!	!	!	!	!	!	!LO:TX:t=P:problem=kreska pseudotaktowa	!
1E	.	1B	.	.	.	1e	-nis
*	*	*	*	*custos:A	*	*	*
!	!	!	!	!LO:TX:t=P:problem=kreska pseudotaktowa	!	!	!
.	.	.	.	2G/	.	.	.
*	*	*Xlig	*	*	*	*	*
!	!	!	!	!LO:LB:g=original	!	!	!
=90-	=90-	=90-	=90-	=90-	=90-	=90-	=90-
!	!	!LO:TX:t=P:problem=kreska pseudotaktowa	!	!	!	!	!
1AA	-nis	1A	-nis	2A,</	nis	2r	.
.	.	.	.	1c	Et	1e	Et
2r	.	2r	.	.	.	.	.
!	!	!	!	!LO:TX:t=P:problem=kreska pseudotaktowa	!	!LO:TX:t=P:problem=kreska pseudotaktowa	!
1C/	Et	1G/	Et	2c\	in	2e/	in
=91-	=91-	=91-	=91-	=91-	=91-	=91-	=91-
.	.	.	.	2c\	ſpi-	2e/	ſpi-
!LO:TX:t=P:problem=kreska pseudotaktowa	!	!LO:TX:t=P:problem=kreska pseudotaktowa	!	!	!	!	!
2C/	in	2G/	in	2c\	-ri-	2e/	-ri-
!	!	!	!	!LO:TX:t=P:problem=kreska pseudotaktowa	!	!	!
2C/	Spi-	2G/	ſpi-	1c	-(tu)m	1e	-tum
2C/	-(ri-	2G/	-ri-	.	.	.	.
=92-	=92-	=92-	=92-	=92-	=92-	=92-	=92-
*	*	*	*	*	*	*custos:g	*
!	!	!	!	!	!	!LO:TX:t=P:problem=kreska pseudotaktowa	!
!LO:TX:t=P:problem=kreska pseudotaktowa	!	!LO:TX:t=P:problem=kreska pseudotaktowa	!	!	!	!	!
1C	-tu)m	1G	-tum	1r	.	1r	.
2r	.	2r	.	1.e	ſan-	1.g	San-
1C/	ſan-	1G/	ſan-	.	.	.	.
=93-	=93-	=93-	=93-	=93-	=93-	=93-	=93-
.	.	.	.	.	.	.	.
!LO:TX:t=P:problem=kreska pseudotaktowa	!	!LO:TX:t=P:problem=kreska pseudotaktowa	!	!LO:TX:t=P:problem=kreska pseudotaktowa	!	!LO:TX:t=P:problem=kreska pseudotaktowa	!
2AA/	-ctu(m)	2c\	-ctum	2e\	-ctu(m)	2a/	-ctum
2E\	do-	2B/	do-	2e\	d(o-	2g/	do-
2F\	-mi-	2A/	-mi-	2c\	-mi-	2f/	-mi-
=94-	=94-	=94-	=94-	=94-	=94-	=94-	=94-
2C/	-nu(m)	2G/	-num	2c,<\	-n)um	2e/	-num
!LO:TX:t=P:problem=kreska pseudotaktowa	!	!LO:TX:t=P:problem=kreska pseudotaktowa	!	!	!	!LO:TX:t=P:problem=kreska pseudotaktowa	!
2AA/	.	2A/	et	1c	et	2e/	et
2C/	et	2G/	vi-	.	.	2e/	vi-
!	!	!	!	!LO:TX:t=P:problem=kreska pseudotaktowa	!	!	!
2FF/	vi-	2.A/	-ui-	2c\	vi-	2.f/	-ui-
=95-	=95-	=95-	=95-	=95-	=95-	=95-	=95-
2C/	-ui-	.	.	2c\	-ui-	.	.
.	.	4G/	.	.	.	4e/	.
2C/	-fi-	4F/	.	2c\	-fi-	1e	-fi-
.	.	4E/	.	.	.	.	.
*custos:AA	*	*	*	*	*	*	*
!LO:TX:t=P:problem=kreska pseudotaktowa	!	!	!	!	!	!	!
1D	-can-	2F/	-fi-	2.A/	-can-	.	.
*	*	*custos:E	*	*	*	*	*
!	!	!LO:TX:t=P:problem=kreska pseudotaktowa	!	!	!	!	!
!	!	!	!	!	!	!LO:TX:t=P:problem=kreska pseudotaktowa	!
.	.	2F/	-can-	.	.	2d/	-can-
!	!	!	!	!LO:TX:t=P:problem=kreska pseudotaktowa	!	!	!
.	.	.	.	4B/	.	.	.
!LO:LB:g=original	!	!LO:LB:g=original	!	!	!	!	!
=96-	=96-	=96-	=96-	=96-	=96-	=96-	=96-
!	!	!LO:TX:t=P:problem=kreska pseudotaktowa	!	!	!	!	!
4AA/	.	1E	-tem	1c	.	2.e/	.
4BB/	.	.	.	.	.	.	.
4C/	.	.	.	.	.	.	.
4D/	.	.	.	.	.	4f/	.
2E\	.	1r	.	2B/	.	2g/	.
2F\	.	.	.	1A\	.	2a/	.
=97-	=97-	=97-	=97-	=97-	=97-	=97-	=97-
!LO:TX:t=P:problem=kreska pseudotaktowa	!	!	!	!	!	!	!
1E	.	2r	.	.	.	1b	.
!	!	!LO:TX:t=P:problem=kreska pseudotaktowa	!	!	!	!	!
.	.	2E/	qui	2G/	.	.	.
!	!	!	!	!LO:TX:t=P:problem=kreska pseudotaktowa	!	!LO:TX:t=P:problem=kreska pseudotaktowa	!
2AA,</	-te(m)	2E/	ex	1A	-tem	0a	-tem
2AA/	qui	2E/	pa-	.	.	.	.
=98-	=98-	=98-	=98-	=98-	=98-	=98-	=98-
2AA/	ex	2.A/	-tre	0r	.	.	.
!LO:TX:t=P:problem=kreska pseudotaktowa	!	!	!	!	!	!	!
2AA/	p(at)-	.	.	.	.	.	.
!	!	!LO:TX:t=P:problem=kreska pseudotaktowa	!	!	!	!	!
.	.	4A/	fi-	.	.	.	.
2E\	-re	2G/	-li-	.	.	00r	.
2C/	fi-	2A/	-o-	.	.	.	.
=99-	=99-	=99-	=99-	=99-	=99-	=99-	=99-
2D/	-li-	2B/	-q(ue)	2r	.	.	.
!LO:TX:t=P:problem=kreska pseudotaktowa	!	!	!	!	!	!	!
2E\	-o-	2.c\	pro-	2e\	Qui	.	.
2AA/	-(que)	.	.	2e\	cu(m)	.	.
.	.	4B/	.	.	.	.	.
!	!	!	!	!LO:TX:t=P:problem=kreska pseudotaktowa	!	!	!
2C/	pro-	1A\	.	2e\	pa-	.	.
=100-	=100-	=100-	=100-	=100-	=100-	=100-	=100-
1BB	-ce-	.	.	2.d\	-tre	.	.
.	.	2G/	-ce-	.	.	.	.
.	.	.	.	4e\	.	.	.
!LO:TX:t=P:problem=kreska pseudotaktowa	!	!LO:TX:t=P:problem=kreska pseudotaktowa	!	!	!	!	!
1AA	-dit	1A	-dit	2f\	.	2r	.
*	*	*	*	*custos:c	*	*	*
!	!	!	!	!LO:TX:t=P:problem=kreska pseudotaktowa	!	!	!
!	!	!	!	!	!	!LO:TX:t=P:problem=kreska pseudotaktowa	!
.	.	.	.	2e\	.	2a\	Qui
!	!	!	!	!LO:LB:g=original	!	!	!
=101-	=101-	=101-	=101-	=101-	=101-	=101-	=101-
0r	.	1r	.	2c\	et	2a\	cu(m)
.	.	.	.	2.f\	fi-	2a\	pa-
.	.	2r	.	.	.	2g/	-tre
.	.	.	.	4e\	.	.	.
!	!	!LO:TX:t=P:problem=kreska pseudotaktowa	!	!	!	!LO:TX:t=P:problem=kreska pseudotaktowa	!
.	.	2G/	ſi-	1e\	.	2e/	et
=102-	=102-	=102-	=102-	=102-	=102-	=102-	=102-
1r	.	2A/	-mul	.	.	2f/	fi-
.	.	2B/	a-	2d\	-li-	2f/	-li-
!	!	!	!	!LO:TX:t=P:problem=kreska pseudotaktowa	!	!	!
2r	.	1c	-do-	1e	-o	2e/	-o
!LO:TX:t=P:problem=kreska pseudotaktowa	!	!	!	!	!	!	!
2C/	ſi-	.	.	.	.	1a\	ſi-
=103-	=103-	=103-	=103-	=103-	=103-	=103-	=103-
!	!	!LO:TX:t=P:problem=kreska pseudotaktowa	!	!	!	!	!
2D/	-mul	1B	-ra-	2r	.	.	.
*	*	*	*	*	*	*custos:a	*
!	!	!	!	!	!	!LO:TX:t=P:problem=kreska pseudotaktowa	!
!	!	!	!	!LO:TX:t=P:problem=kreska pseudotaktowa	!	!	!
2E\	a-	.	.	2e\	et	2g/	-mul
!	!	!	!	!	!	!LO:LB:g=original	!
2F\	-do-	2A/	-tur	2c/	con-	2.a\	a-
!	!	!	!	!LO:TX:t=P:problem=kreska pseudotaktowa	!	!	!
2F\	-ra-	1A/	Et	2A/	-glo-	.	.
.	.	.	.	.	.	4b\	.
=104-	=104-	=104-	=104-	=104-	=104-	=104-	=104-
!LO:TX:t=P:problem=kreska pseudotaktowa	!	!	!	!	!	!	!
1E	-tur	.	.	2.e\	-ri-	2cc\	.
!	!	!LO:TX:t=P:problem=kreska pseudotaktowa	!	!	!	!	!
.	.	2G/	con-	.	.	2.b\	.
.	.	.	.	4d\	.	.	.
!LO:TX:t=P:problem=kreska pseudotaktowa	!	!	!	!	!	!	!
0r	.	2A/	-glo-	2c\	.	.	.
.	.	.	.	.	.	4a/	.
.	.	2D/	-ri-	2d\	.	1a/	-do-
=105-	=105-	=105-	=105-	=105-	=105-	=105-	=105-
!	!	!	!	!LO:TX:t=P:problem=kreska pseudotaktowa	!	!	!
.	.	4E/	-fi-	1Bn	.	.	.
.	.	4F/	.	.	.	.	.
.	.	4G/	.	.	.	2g/	-ra-
*	*	*custos:F	*	*	*	*	*
!	!	!LO:TX:t=P:problem=kreska pseudotaktowa	!	!	!	!	!
.	.	4E/	.	.	.	.	.
!	!	!LO:LB:g=original	!	!	!	!LO:TX:t=P:problem=kreska pseudotaktowa	!
2.D/	et	4F/	-ca-	2.A/	-fi-	0a	-tur
.	.	4E/	.	.	.	.	.
.	.	4F/	.	.	.	.	.
!	!	!LO:TX:t=P:problem=kreska pseudotaktowa	!	!LO:TX:t=P:problem=kreska pseudotaktowa	!	!	!
4D/	con-	4G/	.	4B/	.	.	.
=106-	=106-	=106-	=106-	=106-	=106-	=106-	=106-
2C/	-glo-	4A/	.	4c\	.	.	.
.	.	4B/	.	4d\	.	.	.
*custos:C	*	*	*	*	*	*	*
!LO:TX:t=P:problem=kreska pseudotaktowa	!	!	!	!	!	!	!
2AA/	-ri-	2.c\	.	2.e\	.	.	.
!LO:LB:g=original	!	!	!	!	!	!	!
2C/	-fi-	.	.	.	.	0r	.
.	.	4B/	.	4d\	.	.	.
2D/	.	1A\	.	1f\	-ca-	.	.
=107-	=107-	=107-	=107-	=107-	=107-	=107-	=107-
!LO:TX:t=P:problem=kreska pseudotaktowa	!	!	!	!	!	!	!
1BB	-ca-	.	.	.	.	.	.
!	!	!LO:TX:t=P:problem=kreska pseudotaktowa	!	!	!	!	!
.	.	2G/	-tur	4e\	.	.	.
!	!	!	!	!LO:TX:t=P:problem=kreska pseudotaktowa	!	!	!
.	.	.	.	4d\	.	.	.
2AA/	-tur	2A/	qui	2c\	-tur	1.a	Qui
1AA/	Qui	1c\	lo-	1e\	Qui	.	.
=108-	=108-	=108-	=108-	=108-	=108-	=108-	=108-
.	.	.	.	.	.	.	.
!LO:TX:t=P:problem=kreska pseudotaktowa	!	!LO:TX:t=P:problem=kreska pseudotaktowa	!	!LO:TX:t=P:problem=kreska pseudotaktowa	!	!LO:TX:t=P:problem=kreska pseudotaktowa	!
2AA/	lo-	2c\	-cu-	2e\	lo-	2a\	lo-
2AA/	-quu-	2c\	-tus	2e\	-quu-	2a\	-cu-
2AA/	-tus	2c\	e(st)	2e\	-tus	2a\	-tus
=109-	=109-	=109-	=109-	=109-	=109-	=109-	=109-
2C/	eſt	2.c\	per	2.e\	e(st)	2g/	eſt
!LO:TX:t=P:problem=kreska pseudotaktowa	!	!	!	!	!	!LO:TX:t=P:problem=kreska pseudotaktowa	!
2C/	p(er)	.	.	.	.	2g/	per
*	*	*	*	*custos:d	*	*	*
!	!	!	!	!LO:TX:t=P:problem=kreska pseudotaktowa	!	!	!
!	!	!LO:TX:t=P:problem=kreska pseudotaktowa	!	!	!	!	!
.	.	4B/	.	4e\	per	.	.
!	!	!	!	!LO:PB:g=original	!	!	!
2D/	pro-	2A/	pro-	2d\	pro-	2g/	pro-
2D/	-ph(e-	2A/	-phe-	2d\	-phe-	2f/	-phe-
=110-	=110-	=110-	=110-	=110-	=110-	=110-	=110-
!	!	!LO:TX:t=P:problem=kreska pseudotaktowa	!	!	!	!	!
2E,</	-t)as	1G	-tas	2B/	-tas	2g/	.
1C	Et	.	.	1c	et	1e	-tas
.	.	2r	.	.	.	.	.
!LO:TX:t=P:problem=kreska pseudotaktowa	!	!	!	!LO:TX:t=P:problem=kreska pseudotaktowa	!	!LO:TX:t=P:problem=kreska pseudotaktowa	!
2C/	u-	1G/	Et	2c/	v-	2e/	Et
=111-	=111-	=111-	=111-	=111-	=111-	=111-	=111-
2C/	-na(m)	.	.	2c/	-na(m)	2e/	v-
!	!	!LO:TX:t=P:problem=kreska pseudotaktowa	!	!	!	!	!
2C/	ſan-	2G/	u-	2c/	ſan-	2e/	-na(m)
!LO:TX:t=P:problem=kreska pseudotaktowa	!	!	!	!LO:TX:t=P:problem=kreska pseudotaktowa	!	!	!
1GG	-cta(m)	2G/	-nam	1B	-cta(m)	2d/	ſan-
.	.	2G/	ſan-	.	.	1g/	-ctam
=112-	=112-	=112-	=112-	=112-	=112-	=112-	=112-
1.C	ka-	2E/	-ctam	1.e	ca-	.	.
!	!	!	!	!	!	!LO:TX:t=P:problem=kreska pseudotaktowa	!
.	.	1c	Ca-	.	.	2g/	Ca-
.	.	.	.	.	.	2a/	-tho-
!	!	!LO:TX:t=P:problem=kreska pseudotaktowa	!	!	!	!	!
2C/	-to-	2B/	.	2e\	-to-	1g\	.
=113-	=113-	=113-	=113-	=113-	=113-	=113-	=113-
!	!	!	!	!LO:TX:t=P:problem=kreska pseudotaktowa	!	!	!
1D	-li-	1A	-tho-	1d	-li-	.	.
.	.	.	.	.	.	2f/	-li-
!LO:TX:t=P:problem=kreska pseudotaktowa	!	!	!	!	!	!LO:TX:t=P:problem=kreska pseudotaktowa	!
1E	-cam	2G/	-li-	2B/	-ca(m)	1g	-cam
*	*	*custos:B	*	*	*	*	*
!	!	!LO:TX:t=P:problem=kreska pseudotaktowa	!	!	!	!	!
.	.	2B/	.	2e\	et	.	.
!	!	!LO:PB:g=original	!	!	!	!	!
=114-	=114-	=114-	=114-	=114-	=114-	=114-	=114-
*	*	*	*	*	*	*custos:g	*
2r	.	2B/	-cam	2d\	a-	2r	.
!	!	!LO:TX:t=P:problem=kreska pseudotaktowa	!	!LO:TX:t=P:problem=kreska pseudotaktowa	!	!LO:LB:g=original	!
2E/	et	2G/	.	2e\	-po-	2g/	et
2E/	a-	2.c/	Et	2.e\	-ſto-	2g/	a-
!LO:TX:t=P:problem=kreska pseudotaktowa	!	!	!	!	!	!LO:TX:t=P:problem=kreska pseudotaktowa	!
2C/	-po-	.	.	.	.	2g/	-po-
.	.	4B/	a-	4d\	-li-	.	.
=115-	=115-	=115-	=115-	=115-	=115-	=115-	=115-
2F\	-ſto-	2A/	-po-	2c\	-ca(m)	2a/	-ſto-
*custos:E	*	*	*	*	*	*	*
!	!	!LO:TX:t=P:problem=kreska pseudotaktowa	!	!LO:TX:t=P:problem=kreska pseudotaktowa	!	!	!
2F\	-li-	2A/	-ſto-	2d\	ec-	2a/	-li-
!LO:LB:g=original	!	!	!	!	!	!	!
2E/	-c(am)	2B/	-li-	1.e	-cle-	2g/	-cam
!LO:TX:t=P:problem=kreska pseudotaktowa	!	!	!	!	!	!LO:TX:t=P:problem=kreska pseudotaktowa	!
2AA/	ec-	2A/	-cam	.	.	2cc\	ec-
=116-	=116-	=116-	=116-	=116-	=116-	=116-	=116-
2E/	-cle-	2G/	ec-	.	.	4b\	-cle-
.	.	.	.	.	.	4a\	.
2F\	.	2A/	-cle-	2d\	-si-	1a	.
!LO:TX:t=P:problem=kreska pseudotaktowa	!	!	!	!LO:TX:t=P:problem=kreska pseudotaktowa	!	!	!
1E	-ſi-	1B	-ſi-	1e	-a(m)	.	.
!	!	!	!	!	!	!LO:TX:t=P:problem=kreska pseudotaktowa	!
.	.	.	.	.	.	2g/	-ſi-
=117-	=117-	=117-	=117-	=117-	=117-	=117-	=117-
!	!	!LO:TX:t=P:problem=kreska pseudotaktowa	!	!	!	!	!
2AA/	-am	1A	-am	2r	.	2a,</	-am
2D/	Con-	.	.	2d\	Con-	2f/	Con-
2D/	-fi-	2r	.	2d\	-fi-	2f/	-fi-
!LO:TX:t=P:problem=kreska pseudotaktowa	!	!	!	!LO:TX:t=P:problem=kreska pseudotaktowa	!	!LO:TX:t=P:problem=kreska pseudotaktowa	!
2D/	-te-	2A/	Con-	2d\	-te-	2f/	-te-
=118-	=118-	=118-	=118-	=118-	=118-	=118-	=118-
2.AA/	-or	2A/	-fi-	2.c\	-or	2e/	-or
!	!	!LO:TX:t=P:problem=kreska pseudotaktowa	!	!	!	!	!
.	.	2A/	-te-	.	.	2a\	u-
*	*	*	*	*custos:e	*	*	*
!	!	!	!	!LO:TX:t=P:problem=kreska pseudotaktowa	!	!	!
4BB/	u-	.	.	4d\	.	.	.
!	!	!	!	!LO:LB:g=original	!	!	!
2C/	-nu(m)	2E/	-or	2e\	v-	2g/	-num
!LO:TX:t=P:problem=kreska pseudotaktowa	!	!	!	!	!	!LO:TX:t=P:problem=kreska pseudotaktowa	!
2D/	bap-	1A/	v-	2d\	-nu(m)	2f/	bap-
=119-	=119-	=119-	=119-	=119-	=119-	=119-	=119-
1E	-tiſ-	.	.	2c\	bap-	4e/	-ti-
.	.	.	.	.	.	4f/	.
!	!	!LO:TX:t=P:problem=kreska pseudotaktowa	!	!LO:TX:t=P:problem=kreska pseudotaktowa	!	!	!
.	.	2G/	-nu(m)	2B\	-tiſ-	4g/	.
.	.	.	.	.	.	4e/	.
2AA/	-ma	2c\	bap-	2A/	-ma	4f/	.
.	.	.	.	.	.	4g/	.
!LO:TX:t=P:problem=kreska pseudotaktowa	!	!	!	!	!	!	!
2C/	in	2c\	-tiſ-	2e\	in	1a\	.
=120-	=120-	=120-	=120-	=120-	=120-	=120-	=120-
!	!	!LO:TX:t=P:problem=kreska pseudotaktowa	!	!	!	!	!
2D/	re-	1B	-ma	2f\	re-	.	.
!	!	!	!	!LO:TX:t=P:problem=kreska pseudotaktowa	!	!LO:TX:t=P:problem=kreska pseudotaktowa	!
2E\	-miſ-	.	.	2e\	-miſ-	2g/	-ſma
2F\	-ſi-	2r	.	2c\	-ſi-	2a/	in
*	*	*	*	*	*	*custos:g	*
!	!	!	!	!	!	!LO:TX:t=P:problem=kreska pseudotaktowa	!
2D/	-o-	2A/	in	2d\	-o-	2f/	re-
!	!	!	!	!	!	!LO:LB:g=original	!
=121-	=121-	=121-	=121-	=121-	=121-	=121-	=121-
!LO:TX:t=P:problem=kreska pseudotaktowa	!	!	!	!LO:TX:t=P:problem=kreska pseudotaktowa	!	!	!
1E	-nem	2A/	re-	1B	.	4g/	-mi-
.	.	.	.	.	.	4g/	-ſsi-
!	!	!LO:TX:t=P:problem=kreska pseudotaktowa	!	!	!	!	!
.	.	2G/	-mi-	.	.	4g/	-o-
.	.	.	.	.	.	4g/	-nem
1AA	pec-	2.c\	-ſi-	2A/	-nem	2e/	pec-
.	.	.	.	1c\	pec-	2.f/	-ca-
.	.	4B/	.	.	.	.	.
=122-	=122-	=122-	=122-	=122-	=122-	=122-	=122-
1C	.	2A/	-o-	.	.	.	.
.	.	.	.	.	.	4e/	.
*	*	*custos:F	*	*	*	*	*
!	!	!LO:TX:t=P:problem=kreska pseudotaktowa	!	!	!	!	!
!	!	!	!	!LO:TX:t=P:problem=kreska pseudotaktowa	!	!	!
.	.	2G/	nem	2c/	-ca-	1e	.
!	!	!LO:LB:g=original	!	!	!	!	!
1D	.	2F/	pec-	2.A/	-to-	.	.
!	!	!	!	!	!	!LO:TX:t=P:problem=kreska pseudotaktowa	!
.	.	2F/	-ca-	.	.	2d/	.
.	.	.	.	4B/	.	.	.
=123-	=123-	=123-	=123-	=123-	=123-	=123-	=123-
*	*	*	*	*lig	*	*	*
2C/	-ca-	2E/	.	1c	-ru(m)	0e	-to-
2AA/	-to-	1A	-to-	.	.	.	.
!	!	!	!	!LO:TX:t=P:problem=kreska pseudotaktowa	!	!	!
1E	-ru(m)	.	.	1B	.	.	.
.	.	2G/	.	.	.	.	.
*	*	*	*	*Xlig	*	*	*
=124-	=124-	=124-	=124-	=124-	=124-	=124-	=124-
*custos:F	*	*	*	*	*	*	*
!LO:TX:t=P:problem=kreska pseudotaktowa	!	!	!	!	!	!	!
!	!	!LO:TX:t=P:problem=kreska pseudotaktowa	!	!	!	!LO:TX:t=P:problem=kreska pseudotaktowa	!
2r	.	0A	-rum	2r	.	0c	-rum
!LO:PB:g=original	!	!	!	!	!	!	!
!LO:TX:t=P:problem=kreska pseudotaktowa	!	!	!	!	!	!	!
2F\	et	.	.	2B/	Et	.	.
2F\	ex-	.	.	4A/	ex-	.	.
.	.	.	.	4B/	.	.	.
2F\	-pe-	.	.	4c\	.	.	.
!	!	!	!	!LO:TX:t=P:problem=kreska pseudotaktowa	!	!	!
.	.	.	.	4d\	.	.	.
=125-	=125-	=125-	=125-	=125-	=125-	=125-	=125-
4G\	.	0r	.	2e\	.	0r	.
4F\	.	.	.	.	.	.	.
4E/	.	.	.	1d	.	.	.
!LO:TX:t=P:problem=kreska pseudotaktowa	!	!	!	!	!	!	!
4D/	.	.	.	.	.	.	.
1E	.	.	.	.	.	.	.
!	!	!	!	!LO:TX:t=P:problem=kreska pseudotaktowa	!	!	!
.	.	.	.	2c\	.	.	.
=126-	=126-	=126-	=126-	=126-	=126-	=126-	=126-
!LO:TX:t=P:problem=kreska pseudotaktowa	!	!	!	!	!	!	!
1D	-cto	2r	.	2d\	.	2r	.
!	!	!LO:TX:t=P:problem=kreska pseudotaktowa	!	!	!	!LO:TX:t=P:problem=kreska pseudotaktowa	!
.	.	2A/	Et	4D/	-pe-	2f/	Et
!	!	!	!	!LO:TX:t=P:problem=kreska pseudotaktowa	!	!	!
.	.	.	.	4E/	.	.	.
!LO:TX:t=P:problem=kreska pseudotaktowa	!	!	!	!	!	!	!
00r	.	4A/	ex-	4F/	.	2f/	ex-
.	.	4B/	.	4G/	.	.	.
*	*	*	*	*custos:G	*	*	*
.	.	4c\	.	2A/	.	2f/	-pe-
.	.	4d\	.	.	.	.	.
!	!	!	!	!LO:LB:g=original	!	!	!
=127-	=127-	=127-	=127-	=127-	=127-	=127-	=127-
.	.	2e\	.	2G/	.	4g/	.
.	.	.	.	.	.	4f/	.
.	.	1d	-pe-	2B/	.	4e/	.
!	!	!	!	!	!	!LO:TX:t=P:problem=kreska pseudotaktowa	!
.	.	.	.	.	.	4d/	.
!	!	!	!	!LO:TX:t=P:problem=kreska pseudotaktowa	!	!	!
*	*	*	*	*	*	*lig	*
.	.	.	.	1A	.	1e	.
!	!	!LO:TX:t=P:problem=kreska pseudotaktowa	!	!	!	!	!
.	.	2c\	.	.	.	.	.
=128-	=128-	=128-	=128-	=128-	=128-	=128-	=128-
.	.	2d\	-cto	2D/	.	1f	.
.	.	2D/	re-	1d	.	.	.
*	*	*	*	*	*	*Xlig	*
!	!	!	!	!	!	!LO:TX:t=P:problem=kreska pseudotaktowa	!
1AA	re-	2.A/	-ſu-	.	.	1e	-cto
!	!	!	!	!LO:TX:t=P:problem=kreska pseudotaktowa	!	!	!
.	.	.	.	2c\	.	.	.
!	!	!LO:TX:t=P:problem=kreska pseudotaktowa	!	!	!	!	!
.	.	4A/	-re-	.	.	.	.
=129-	=129-	=129-	=129-	=129-	=129-	=129-	=129-
2.D/	-ſur-	2A/	-cti-	2d\	-cto	2r	.
.	.	2A/	-o-	2d\	re-	2d/	re-
!LO:TX:t=P:problem=kreska pseudotaktowa	!	!	!	!	!	!	!
4D/	-re-	.	.	.	.	.	.
2D/	-cti-	4F/	-nem	4d\	-ſur-	2.a\	-ſur-
.	.	4G/	.	4d\	-re-	.	.
2D/	-o-	4A/	.	4d\	-cti-	.	.
!	!	!LO:TX:t=P:problem=kreska pseudotaktowa	!	!LO:TX:t=P:problem=kreska pseudotaktowa	!	!LO:TX:t=P:problem=kreska pseudotaktowa	!
.	.	4B/	.	4d\	-o-	4a\	-re-
=130-	=130-	=130-	=130-	=130-	=130-	=130-	=130-
4AA/	-nem	2c\	.	2c\	-ne(m)	2a\	-cti-
4BB/	.	.	.	.	.	.	.
4C/	.	2c\	mor-	1e	mor-	2a\	-o-
!LO:TX:t=P:problem=kreska pseudotaktowa	!	!	!	!	!	!	!
4D/	.	.	.	.	.	.	.
2E/	.	2B/	-tu-	.	.	2g\	-nem
*	*	*	*	*	*	*custos:b	*
!	!	!	!	!	!	!LO:TX:t=P:problem=kreska pseudotaktowa	!
!	!	!	!	!LO:TX:t=P:problem=kreska pseudotaktowa	!	!	!
2F/	mor-	1A\	-o-	2c\	-tu-	2a\	mor-
!	!	!	!	!	!	!LO:PB:g=original	!
=131-	=131-	=131-	=131-	=131-	=131-	=131-	=131-
2D/	.	.	.	2f\	-o-	2b\	tu-
*	*	*custos:A	*	*	*	*	*
!	!	!LO:TX:t=P:problem=kreska pseudotaktowa	!	!	!	!	!
!LO:TX:t=P:problem=kreska pseudotaktowa	!	!	!	!	!	!	!
2E/	.	2G/	-rum	2.e\	.	2.cc\	-o-
*	*	*lig	*	*	*	*	*
!	!	!LO:LB:g=original	!	!	!	!	!
2C/	.	1A	.	.	.	.	.
.	.	.	.	4d\	.	4b/	.
2F\	-tu-	.	.	2d\	.	1a\	.
=132-	=132-	=132-	=132-	=132-	=132-	=132-	=132-
!LO:TX:t=P:problem=kreska pseudotaktowa	!	!	!	!	!	!	!
!	!	!	!	!LO:TX:t=P:problem=kreska pseudotaktowa	!	!	!
1E	-o-	1B	.	1e	-ru(m)	.	.
!	!	!	!	!	!	!LO:TX:t=P:problem=kreska pseudotaktowa	!
.	.	.	.	.	.	2g/	.
*lig	*	*Xlig	*	*	*	*	*
1AA	-ru(m)	1.A	.	2r	.	2a/	.
.	.	.	.	2c\	et	2.f/	.
=133-	=133-	=133-	=133-	=133-	=133-	=133-	=133-
!LO:TX:t=P:problem=kreska pseudotaktowa	!	!	!	!	!	!	!
1C	.	.	.	2c\	vi-	.	.
.	.	.	.	.	.	4e/	.
!	!	!LO:TX:t=P:problem=kreska pseudotaktowa	!	!LO:TX:t=P:problem=kreska pseudotaktowa	!	!	!
.	.	2G/	.	2c\	-ta(m)	1e	.
*Xlig	*	*	*	*	*	*	*
1D	et	1F	.	2A/	ven-	.	.
.	.	.	.	2B/	-tu-	2d/	.
=134-	=134-	=134-	=134-	=134-	=134-	=134-	=134-
!	!	!	!	!LO:TX:t=P:problem=kreska pseudotaktowa	!	!LO:TX:t=P:problem=kreska pseudotaktowa	!
2AA/	vi-	2E,</	.	1c	-ri	1e	-rum
*custos:AA	*	*	*	*	*	*	*
!LO:TX:t=P:problem=kreska pseudotaktowa	!	!	!	!	!	!	!
!	!	!LO:TX:t=P:problem=kreska pseudotaktowa	!	!	!	!	!
2AA/	-ta(m)	2A/	Et	.	.	.	.
!LO:LB:g=original	!	!	!	!	!	!	!
2AA/	ven-	2A/	vi-	2r	.	2r	.
*	*	*	*	*	*ij	*	*
!	!	!	!	!LO:TX:t=P:problem=kreska pseudotaktowa	!	!	!
2AA/	-tu-	2.A/	-tam	2c\	et	2e/	Et
=135-	=135-	=135-	=135-	=135-	=135-	=135-	=135-
!LO:TX:t=P:problem=kreska pseudotaktowa	!	!	!	!	!	!	!
1C	-ri	.	.	2c\	vi-	2e/	vi-
.	.	4G/	.	.	.	.	.
*	*	*	*	*custos:A	*	*	*
!	!	!	!	!LO:TX:t=P:problem=kreska pseudotaktowa	!	!	!
!	!	!	!	!	!	!LO:TX:t=P:problem=kreska pseudotaktowa	!
.	.	1G	ven-	2c\	-tam	2e/	-tam
!	!	!	!	!LO:LB:g=original	!	!	!
1D	ſe-	.	.	2A/	ven-	2f/	ven-
!	!	!LO:TX:t=P:problem=kreska pseudotaktowa	!	!LO:TX:t=P:problem=kreska pseudotaktowa	!	!	!
.	.	2F/	.	2B/	.	2f/	-tu-
=136-	=136-	=136-	=136-	=136-	=136-	=136-	=136-
2C/	.	2G/	-tu-	2.c\	.	2e/	-ris
2AA/	-cu-	2A/	.	.	.	1a	ſe-
.	.	.	.	4d\	-tu-	.	.
!LO:TX:t=P:problem=kreska pseudotaktowa	!	!LO:TX:t=P:problem=kreska pseudotaktowa	!	!LO:TX:t=P:problem=kreska pseudotaktowa	!	!	!
1E	-li	1B	-ri	0e	-ri	.	.
*	*	*	*	*	*Xij	*	*
!	!	!	!	!	!	!LO:TX:t=P:problem=kreska pseudotaktowa	!
.	.	.	.	.	.	2g/	-cu-
=137-	=137-	=137-	=137-	=137-	=137-	=137-	=137-
2r	.	2.A/	ſe-	.	.	2.cc\	-li
1A	A-	.	.	.	.	.	.
.	.	4B\	.	.	.	4b\	.
.	.	2c\	-cu-	2r	.	4a/	.
.	.	.	.	.	.	4g/	.
!LO:TX:t=P:problem=kreska pseudotaktowa	!	!LO:TX:t=P:problem=kreska pseudotaktowa	!	!	!	!	!
2G\	.	2B\	-li	1e\	ſę-	2.b\	.
=138-	=138-	=138-	=138-	=138-	=138-	=138-	=138-
2A\	.	2c\	A-	.	.	.	.
.	.	.	.	.	.	4a/	.
!	!	!	!	!LO:TX:t=P:problem=kreska pseudotaktowa	!	!	!
2F\	.	2A/	.	2d\	-cu-	1a	A-
!LO:TX:t=P:problem=kreska pseudotaktowa	!	!	!	!	!	!	!
1E	.	1B	.	2e\	-li	.	.
.	.	.	.	2e\	A-	2g/	.
=139-	=139-	=139-	=139-	=139-	=139-	=139-	=139-
0AAl	-men	0Al	-men	0cl	-men.	0al	-men
==	==	==	==	==	==	==	==
*-	*-	*-	*-	*-	*-	*-	*-
!!!system-decoration: [(*)]
!!!RDF**kern: < = below
!!!RDF**kern: l = terminal long
!!!ENC: Berenika Jozajtis
!!!END: 2022-01-04
!!!ENC: Andrzej Kubiczek
!!!END: 2022-01-06
!!!YEC: Copyright 2022 Narodowy Instytut Fryderyka Chopina (https://polishscores.org)
!!!YEM: Licence CC BY 4.0 (https://creativecommons.org/licenses/by/4.0)
